build/img/svg/service3.svg

<svg width="44" height="48" viewBox="0 0 44 48" fill="none" xmlns="http://www.w3.org/2000/svg">
<path fill-rule="evenodd" clip-rule="evenodd" d="M43.6135 15.9564C43.3539 13.4854 41.5433 10.2638 39.5877 8.79779C39.5877 8.79779 36.668 6.60664 33.0008 4.43336C29.332 2.25702 26.0243 0.754213 26.0243 0.754213C24.9182 0.251234 23.4601 0 22.001 0C20.5419 0 19.0818 0.251234 17.9762 0.754213C17.9762 0.754213 14.668 2.25702 10.9997 4.43336C7.33198 6.60664 4.41177 8.79779 4.41177 8.79779C2.45769 10.2638 0.644598 13.4854 0.386961 15.9564C0.386961 15.9564 0 19.6509 0 24C0 28.3506 0.386961 32.0446 0.386961 32.0446C0.644598 34.5151 2.45769 37.7367 4.41075 39.2017C4.41075 39.2017 7.33198 41.3949 10.9997 43.5707C14.668 45.744 17.9762 47.2473 17.9762 47.2473C19.0818 47.7488 20.5419 48 22.001 48C23.4601 48 24.9182 47.7488 26.0243 47.2473C26.0243 47.2473 29.332 45.744 32.9997 43.5707C36.668 41.3949 39.5877 39.2017 39.5877 39.2017C41.5433 37.7367 43.3539 34.5151 43.6135 32.0446C43.6135 32.0446 44 28.3506 44 24C44 19.6509 43.6135 15.9564 43.6135 15.9564ZM41.5966 31.8291C41.3947 33.7501 39.891 36.4289 38.3766 37.5641C38.3487 37.585 35.4919 39.721 31.9717 41.8106C28.449 43.897 25.222 45.3712 25.1915 45.385C24.3892 45.7491 23.2263 45.9574 22.001 45.9574C20.7757 45.9574 19.6128 45.7491 18.8105 45.385C18.7775 45.3712 15.5515 43.897 12.0298 41.8106C8.50757 39.721 5.65075 37.585 5.62337 37.5631C4.1095 36.4279 2.60628 33.7491 2.40393 31.8301C2.40089 31.7944 2.02863 28.1939 2.02863 24C2.02863 19.8184 2.40089 16.2066 2.40393 16.1699C2.60628 14.2514 4.1095 11.5711 5.62438 10.4354C5.65278 10.4145 8.49692 8.28613 12.0298 6.19251C15.5515 4.10298 18.7775 2.6303 18.8105 2.616C19.6128 2.2514 20.7757 2.04255 22.001 2.04255C23.2263 2.04255 24.3882 2.2514 25.1905 2.616C25.222 2.6303 28.4374 4.09736 31.9717 6.19353C35.4929 8.28 38.3487 10.4145 38.3777 10.4354C39.89 11.5706 41.3947 14.2514 41.5966 16.1709C41.5986 16.2066 41.9714 19.8184 41.9714 24C41.9714 28.1821 41.5986 31.7944 41.5966 31.8291Z" fill="#E77A2B"/>
<path fill-rule="evenodd" clip-rule="evenodd" d="M33.5904 15.9697C32.0147 15.1021 30.1275 14.6431 28.1354 14.6431C25.8674 14.6431 23.4036 15.2783 22.0013 16.6606C20.5975 15.2783 18.1343 14.6431 15.8658 14.6431C13.8716 14.6431 11.986 15.1021 10.4097 15.9697C10.0852 16.1489 9.88281 16.4921 9.88281 16.8654V31.873C9.88281 32.233 10.072 32.5675 10.3803 32.7518C10.6872 32.9352 11.0706 32.9423 11.3845 32.7687C12.3603 32.231 13.4943 31.9588 14.7591 31.9588C17.3781 31.9588 20.0189 33.1644 21.0859 34.106C21.198 34.3077 21.3694 34.4752 21.5911 34.5631C21.7128 34.6106 21.8375 34.634 21.9633 34.634C21.9765 34.634 21.9882 34.631 22.0013 34.63C22.013 34.631 22.0262 34.634 22.0379 34.634C22.1626 34.634 22.2884 34.6106 22.4091 34.5631C22.6323 34.4752 22.8037 34.3077 22.9152 34.106C23.9813 33.1644 26.6221 31.9588 29.241 31.9588C30.5049 31.9588 31.6409 32.231 32.6167 32.7687C32.9296 32.9423 33.312 32.9352 33.6193 32.7518C33.9282 32.5675 34.1173 32.233 34.1173 31.873V16.8654C34.1173 16.4921 33.9155 16.1489 33.5904 15.9697ZM11.9114 30.335V17.4975C13.0744 16.9711 14.4553 16.6856 15.8658 16.6856C18.2372 16.6856 20.3658 17.5144 20.949 18.6163V31.5631C19.3783 30.6832 17.1514 29.9163 14.7591 29.9163C13.7499 29.9163 12.7969 30.0572 11.9114 30.335ZM32.0887 30.335C31.2022 30.0572 30.2513 29.9163 29.241 29.9163C26.8488 29.9163 24.6223 30.6822 23.0522 31.562V18.6163C23.6344 17.5144 25.7634 16.6856 28.1354 16.6856C29.5463 16.6856 30.9268 16.9711 32.0887 17.4975V30.335Z" fill="#E77A2B"/>
</svg>

<svg width="44" height="48" fill="none" xmlns="http://www.w3.org/2000/svg"><path fill-rule="evenodd" clip-rule="evenodd" d="M43.614 15.956c-.26-2.47-2.07-5.692-4.026-7.158 0 0-2.92-2.191-6.587-4.365C29.332 2.257 26.024.754 26.024.754 24.918.251 23.46 0 22.001 0c-1.46 0-2.92.251-4.025.754 0 0-3.308 1.503-6.976 3.68-3.668 2.173-6.588 4.364-6.588 4.364C2.458 10.264.645 13.485.387 15.956c0 0-.387 3.695-.387 8.044 0 4.35.387 8.045.387 8.045.258 2.47 2.07 5.692 4.024 7.157 0 0 2.921 2.193 6.589 4.369a81.608 81.608 0 006.976 3.676c1.106.502 2.566.753 4.025.753 1.46 0 2.917-.251 4.023-.753 0 0 3.308-1.503 6.976-3.676 3.668-2.176 6.588-4.37 6.588-4.37 1.955-1.464 3.766-4.686 4.026-7.156 0 0 .386-3.694.386-8.045 0-4.35-.386-8.044-.386-8.044zM41.596 31.83c-.202 1.921-1.706 4.6-3.22 5.735a80.798 80.798 0 01-6.405 4.247 80.59 80.59 0 01-6.78 3.574c-.803.364-1.966.572-3.191.572-1.225 0-2.388-.208-3.19-.572a79.94 79.94 0 01-6.781-3.574 79.964 79.964 0 01-6.407-4.248c-1.514-1.135-3.017-3.814-3.22-5.733-.002-.036-.374-3.636-.374-7.83 0-4.182.372-7.793.375-7.83.202-1.919 1.705-4.599 3.22-5.735.029-.02 2.873-2.149 6.406-4.242a79.44 79.44 0 016.78-3.577c.803-.365 1.966-.573 3.191-.573 1.225 0 2.387.208 3.19.573a79.755 79.755 0 016.78 3.578c3.522 2.086 6.378 4.22 6.407 4.241 1.512 1.136 3.017 3.816 3.219 5.736.002.036.374 3.647.374 7.829s-.372 7.794-.374 7.83z" fill="#E77A2B"/><path fill-rule="evenodd" clip-rule="evenodd" d="M33.59 15.97c-1.575-.868-3.463-1.327-5.455-1.327-2.268 0-4.731.635-6.134 2.018-1.404-1.383-3.867-2.018-6.135-2.018-1.994 0-3.88.46-5.456 1.327a1.021 1.021 0 00-.527.895v15.008c0 .36.189.695.497.879.307.183.69.19 1.004.017.976-.538 2.11-.81 3.375-.81 2.62 0 5.26 1.205 6.327 2.147.112.202.283.37.505.457.122.048.246.071.372.071.014 0 .025-.003.038-.004.012.001.025.004.037.004.125 0 .25-.023.371-.07.223-.089.395-.256.506-.458 1.066-.942 3.707-2.147 6.326-2.147 1.264 0 2.4.272 3.376.81.313.173.695.166 1.002-.017.31-.184.498-.519.498-.879V16.865c0-.373-.201-.716-.527-.895zM11.911 30.335V17.497c1.163-.526 2.544-.811 3.955-.811 2.371 0 4.5.828 5.083 1.93v12.947c-1.57-.88-3.798-1.647-6.19-1.647-1.01 0-1.962.141-2.848.419zm20.178 0a9.48 9.48 0 00-2.848-.419c-2.392 0-4.619.766-6.189 1.646V18.616c.582-1.102 2.711-1.93 5.083-1.93 1.411 0 2.792.285 3.954.811v12.838z" fill="#E77A2B"/></svg>
